!!!SOCIAL_FUNCTION:	songs of the grass dance
!!!PDT:	1918

Specific Region: Dakotas, Minnesota, Montana, Nebraska
!!!REG: Dakotas and Montana
!!!LING_GROUP: Siouan
!!!LANG: Tone
!!!OTL@ENG: Song of the Grass Dance (d)
!!!ONM: No. 199
**kern
*Imale
*clefG2
*k[f#]
*M3/4
*MM112
4a
12a
12b
12a
4g
=2
2g
16e
8.e
=3||
*M2/4
4g
12g
12g
12e
=4
16d
8.d
[4d
=5||
*M3/4
2d]
16e
8.e
=6||
*M2/4
4g
12g
12e
12d
=7||
*M3/4
2d
*clefF4
16A
8.A
=8||
*M2/4
4B
12A
12G
12G
=9||
*M3/4
2G
16E
8.E
=10||
*M2/4
4G
12G
12E
12D
=11||
*M3/4
8D
8D
2D
=12
2D
16e
8.e
=13||
*M2/4
4g
12g
12e
12d
=14||
*M3/4
2d
16A
8.A
=15||
*M2/4
4B
12A
12G
12G
=16||
*M3/4
2G
16E
8.E
=17||
*M2/4
4G
12G
12E
12D
=18||
*M3/4
8D
8D
2D
=19||
*M2/4
2D
==
*-
!!!CNT: Native American -- Sioux
!!!MRD: 1911/07//-1914///
!!!OCL: Frances Densmore
!!!YOR1: Teton Sioux Music, Bulletin 61,
!!!YOR2: Bureau of American Ethnology, Smithsonian Institution
!!!PPR: Government Printing Office
!!!PPP: Washington, D.C.
!!!PDT: 1918///
!!!ENC: Craig Stuart Sapp
!!!END: 2002/03/25/
!!!EEV: 2002/03/31/
!!!AGN: Dance Song/Song of the Grass Dance
!!!MPN@@SIO: Hanghe'-pikte
!!!MPN@ENG: Kills-at-Night
!!!TXO: Teton Sioux
!!!MLC: Standing Rock Reservation, South Dakota, United States of America
!!!ARL: 45.9/-100.7#
!!!catalog: Catalogue No. 597
!!!PPG: 476
!!!EFL: 204/245
!!!VTS: 4106102155
